X: 10443
T: Donegal Lass, The
R: jig
M: 6/8
K: Amixolydian
|:Ace aed|cdB A3|GB/c/d G3|FAd fed|
Ace aed|cdB A2 z|aed cdB|ABG A2 A:|
|:GBd G3|FAd fed|e3 ecA|GBd ecA|
GB/c/d G3|FAd f3|aed cdB|ABG A2 A:|

